packages/icons/src/store-fill.svg

<svg width="24" height="24" viewBox="0 0 24 24" fill="none" xmlns="http://www.w3.org/2000/svg">
<path d="M20.958 11.05V19C20.958 19.55 20.763 20.0208 20.3732 20.4125C19.9834 20.8042 19.5147 21 18.9673 21H5.0327C4.48527 21 4.01664 20.8042 3.6268 20.4125C3.23697 20.0208 3.04205 19.55 3.04205 19V11.05C2.66051 10.7 2.36605 10.25 2.15869 9.7C1.95133 9.15 1.94719 8.55 2.14625 7.9L3.19135 4.5C3.32406 4.06667 3.56045 3.70833 3.90052 3.425C4.24059 3.14167 4.63457 3 5.08247 3H18.9175C19.3654 3 19.7553 3.1375 20.087 3.4125C20.4188 3.6875 20.6594 4.05 20.8087 4.5L21.8537 7.9C22.0528 8.55 22.0487 9.14167 21.8413 9.675C21.6339 10.2083 21.3395 10.6667 20.958 11.05ZM14.1897 10C14.6376 10 14.9777 9.84583 15.2099 9.5375C15.4422 9.22917 15.5334 8.88333 15.4836 8.5L14.9362 5H12.9953V8.7C12.9953 9.05 13.1115 9.35417 13.3437 9.6125C13.5759 9.87083 13.8579 10 14.1897 10ZM9.71075 10C10.0923 10 10.4033 9.87083 10.6439 9.6125C10.8844 9.35417 11.0047 9.05 11.0047 8.7V5H9.06378L8.51635 8.5C8.45 8.9 8.53709 9.25 8.77763 9.55C9.01816 9.85 9.3292 10 9.71075 10ZM5.28154 10C5.58013 10 5.84141 9.89167 6.06536 9.675C6.28931 9.45833 6.42616 9.18333 6.47593 8.85L7.02336 5H5.08247L4.08714 8.35C3.98761 8.68333 4.04152 9.04167 4.24888 9.425C4.45624 9.80833 4.80046 10 5.28154 10ZM18.7185 10C19.1995 10 19.5479 9.80833 19.7636 9.425C19.9792 9.04167 20.029 8.68333 19.9129 8.35L18.8678 5H16.9766L17.5241 8.85C17.5738 9.18333 17.7107 9.45833 17.9346 9.675C18.1586 9.89167 18.4199 10 18.7185 10Z" fill="black"/>
</svg>

<svg xmlns="http://www.w3.org/2000/svg" width="24" height="24" fill="none" viewBox="0 0 24 24">
  <path fill="#000" d="M20.958 11.05V19c0 .55-.195 1.02-.585 1.413-.39.391-.858.587-1.406.587H5.033a1.912 1.912 0 0 1-1.406-.587A1.93 1.93 0 0 1 3.042 19v-7.95c-.381-.35-.676-.8-.883-1.35-.208-.55-.212-1.15-.013-1.8l1.045-3.4a2.21 2.21 0 0 1 .71-1.075A1.79 1.79 0 0 1 5.082 3h13.835c.448 0 .838.138 1.17.413.332.275.572.637.722 1.087l1.045 3.4c.199.65.195 1.242-.013 1.775a3.954 3.954 0 0 1-.883 1.375ZM14.19 10c.448 0 .788-.154 1.02-.463a1.37 1.37 0 0 0 .274-1.037L14.936 5h-1.94v3.7c0 .35.115.654.348.913.232.258.514.387.846.387Zm-4.48 0c.382 0 .693-.13.934-.387a1.3 1.3 0 0 0 .36-.913V5h-1.94l-.548 3.5c-.066.4.021.75.262 1.05.24.3.551.45.933.45Zm-4.428 0c.298 0 .56-.108.783-.325a1.4 1.4 0 0 0 .41-.825L7.024 5h-1.94l-.996 3.35c-.1.333-.045.692.162 1.075.207.383.551.575 1.033.575Zm13.436 0c.482 0 .83-.192 1.046-.575.215-.383.265-.742.149-1.075L18.868 5h-1.891l.547 3.85a1.4 1.4 0 0 0 .41.825c.225.217.486.325.784.325Z"/>
</svg>
